packages/match-icons/product/svg/copilot.svg

<svg fill="none" height="32" viewBox="0 0 32 32" width="32" xmlns="http://www.w3.org/2000/svg" xmlns:xlink="http://www.w3.org/1999/xlink"><clipPath id="a"><path d="m0 0h32v32h-32z"/></clipPath><g clip-path="url(#a)" fill="#394762"><path d="m3.17002 1.80996c-.09296-.09373-.20356-.16812-.32542-.21889s-.25257-.07691-.38458-.07691-.26272.02614-.38458.07691-.23246.12516-.32542.21889c-1.123603 1.125-1.75471971 2.64999-1.75471971 4.24 0 1.59.63111671 3.115 1.75471971 4.24004l.08.07c-.82139 1.1529-1.208683 2.5591-1.093395 3.97.115289 1.411.725725 2.7357 1.723395 3.74l2.83 2.83c.09344.0926.20426.166.32609.2157.12184.0498.2523.075.38391.0743.19573-.0028.38634-.0629.54822-.173.16187-.11.28788-.2652.36241-.4462s.0943-.3799.05686-.572c-.03744-.1922-.13045-.3691-.26749-.5088l-2.82-2.83c-.62357-.6273-1.02167-1.4435-1.13204-2.321-.11037-.8776.07321-1.7669.52204-2.529l5.56 5.55c.18463.1884.43623.2962.7.3.18877-.0077.37152-.0687.52708-.1759.1555-.1073.2775-.2564.3518-.4301s.0979-.3649.068-.5514c-.0299-.1866-.112-.3608-.2369-.5026l-7.06998-7.12004c-.63219-.62811-1.03653-1.44936-1.14885-2.33343s.07381-1.78033.52885-2.54657l16.75998 16.77004c.6736.6742 1.1322 1.5331 1.3178 2.4679.1855.9349.0898 1.9038-.2752 2.7842-.3649.8805-.9827 1.633-1.7752 2.1624-.7926.5294-1.7243.812-2.6774.812s-1.8848-.2826-2.6773-.812c-.7926-.5294-1.4103-1.2819-1.7753-2.1624-.365-.8804-.4607-1.8493-.2751-2.7842.1856-.9348.6441-1.7937 1.3177-2.4679l.83-.83c.1863-.1874.2908-.4409.2908-.705 0-.2642-.1045-.5177-.2908-.705-.1873-.1863-.4408-.2908-.705-.2908s-.5176.1045-.705.2908l-.84.83c-.9531.954-1.60189 2.1693-1.86446 3.492-.26257 1.3228-.12709 2.6937.38931 3.9394.51635 1.2458 1.39055 2.3105 2.51195 3.0596s2.4397 1.1489 3.7882 1.1489c1.3486 0 2.6669-.3998 3.7883-1.1489s1.9955-1.8138 2.5119-3.0596c.5164-1.2457.6519-2.6166.3893-3.9394-.2626-1.3227-.9114-2.538-1.8645-3.492z"/><path d="m30 10.29c1.1236-1.12504 1.7547-2.65004 1.7547-4.24004 0-1.59001-.6311-3.115-1.7547-4.24-.0929-.09373-.2035-.16812-.3254-.21889s-.2526-.07691-.3846-.07691-.2627.02614-.3846.07691c-.1218.05077-.2324.12516-.3254.21889l-10.27 10.31004c-.0937.0929-.1681.2035-.2189.3254-.0507.1218-.0769.2525-.0769.3846 0 .132.0262.2627.0769.3845.0508.1219.1252.2325.2189.3255.1874.1862.4408.2908.705.2908s.5177-.1046.705-.2908l9.52-9.54004c.4501.76419.6334 1.65629.5212 2.53603-.1123.87974-.5137 1.69724-1.1412 2.32397l-7.07 7.14004c-.1068.0913-.1931.2042-.2533.3312-.0603.127-.0931.2653-.0963.4058s.0233.2801.0776.4097c.0544.1296.1355.2463.238.3425.1026.0961.2242.1696.357.2156.1328.0459.2739.0634.4139.0512s.2759-.0538.3988-.122c.1228-.0682.23-.1616.3143-.274l5.55-5.55c.4501.761.6354 1.6497.5268 2.5272s-.5048 1.6943-1.1268 2.3228l-2.83 2.83c-.1862.1873-.2908.4408-.2908.705 0 .2641.1046.5176.2908.705.1874.1862.4408.2908.705.2908s.5177-.1046.705-.2908l2.83-2.83c.9992-1.0031 1.6115-2.3272 1.7286-3.7381.1171-1.411-.2685-2.8179-1.0886-3.9719z"/></g></svg>

<svg width="32" height="32" viewBox="0 0 32 32" fill="none" xmlns="http://www.w3.org/2000/svg">
<g clip-path="url(#clip0)">
<path d="M3.17002 1.80996C3.07706 1.71623 2.96646 1.64184 2.8446 1.59107C2.72274 1.5403 2.59203 1.51416 2.46002 1.51416C2.32801 1.51416 2.1973 1.5403 2.07544 1.59107C1.95358 1.64184 1.84298 1.71623 1.75002 1.80996C0.626417 2.93496 -0.00469971 4.45995 -0.00469971 6.04996C-0.00469971 7.63996 0.626417 9.16496 1.75002 10.29L1.83002 10.36C1.00863 11.5129 0.621337 12.9191 0.736625 14.33C0.851914 15.741 1.46235 17.0657 2.46002 18.07L5.29002 20.9C5.38346 20.9926 5.49428 21.066 5.61611 21.1157C5.73795 21.1655 5.86841 21.1907 6.00002 21.19C6.19575 21.1872 6.38636 21.1271 6.54824 21.017C6.71011 20.907 6.83612 20.7518 6.91065 20.5708C6.98518 20.3898 7.00495 20.1909 6.96751 19.9988C6.93007 19.8066 6.83706 19.6297 6.70002 19.49L3.88002 16.66C3.25645 16.0327 2.85835 15.2165 2.74798 14.339C2.63761 13.4614 2.82119 12.5721 3.27002 11.81L8.83002 17.36C9.01465 17.5484 9.26625 17.6562 9.53002 17.66C9.71879 17.6523 9.90154 17.5913 10.0571 17.4841C10.2126 17.3768 10.3346 17.2277 10.4089 17.054C10.4832 16.8803 10.5068 16.6891 10.4769 16.5026C10.447 16.316 10.3649 16.1418 10.24 16L3.17002 8.87996C2.53783 8.25185 2.13349 7.4306 2.02117 6.54653C1.90885 5.66246 2.09498 4.7662 2.55002 3.99996L19.31 20.77C19.9836 21.4442 20.4422 22.3031 20.6278 23.2379C20.8133 24.1728 20.7176 25.1417 20.3526 26.0221C19.9877 26.9026 19.3699 27.6551 18.5774 28.1845C17.7848 28.7139 16.8531 28.9965 15.9 28.9965C14.9469 28.9965 14.0152 28.7139 13.2227 28.1845C12.4301 27.6551 11.8124 26.9026 11.4474 26.0221C11.0824 25.1417 10.9867 24.1728 11.1723 23.2379C11.3579 22.3031 11.8164 21.4442 12.49 20.77L13.32 19.94C13.5063 19.7526 13.6108 19.4991 13.6108 19.235C13.6108 18.9708 13.5063 18.7173 13.32 18.53C13.1327 18.3437 12.8792 18.2392 12.615 18.2392C12.3508 18.2392 12.0974 18.3437 11.91 18.53L11.07 19.36C10.1169 20.314 9.46811 21.5293 9.20554 22.852C8.94297 24.1748 9.07845 25.5457 9.59485 26.7914C10.1112 28.0372 10.9854 29.1019 12.1068 29.851C13.2282 30.6001 14.5465 30.9999 15.895 30.9999C17.2436 30.9999 18.5619 30.6001 19.6833 29.851C20.8047 29.1019 21.6788 28.0372 22.1952 26.7914C22.7116 25.5457 22.8471 24.1748 22.5845 22.852C22.3219 21.5293 21.6731 20.314 20.72 19.36L3.17002 1.80996Z" fill="#394762"/>
<path d="M30 10.29C31.1236 9.16496 31.7547 7.63996 31.7547 6.04996C31.7547 4.45995 31.1236 2.93496 30 1.80996C29.9071 1.71623 29.7965 1.64184 29.6746 1.59107C29.5527 1.5403 29.422 1.51416 29.29 1.51416C29.158 1.51416 29.0273 1.5403 28.9054 1.59107C28.7836 1.64184 28.673 1.71623 28.58 1.80996L18.31 12.12C18.2163 12.2129 18.1419 12.3235 18.0911 12.4454C18.0404 12.5672 18.0142 12.6979 18.0142 12.83C18.0142 12.962 18.0404 13.0927 18.0911 13.2145C18.1419 13.3364 18.2163 13.447 18.31 13.54C18.4974 13.7262 18.7508 13.8308 19.015 13.8308C19.2792 13.8308 19.5327 13.7262 19.72 13.54L29.24 3.99996C29.6901 4.76415 29.8734 5.65625 29.7612 6.53599C29.6489 7.41573 29.2475 8.23323 28.62 8.85996L21.55 16C21.4432 16.0913 21.3569 16.2042 21.2967 16.3312C21.2364 16.4582 21.2036 16.5965 21.2004 16.737C21.1972 16.8775 21.2237 17.0171 21.278 17.1467C21.3324 17.2763 21.4135 17.393 21.516 17.4892C21.6186 17.5853 21.7402 17.6588 21.873 17.7048C22.0058 17.7507 22.1469 17.7682 22.2869 17.756C22.4269 17.7438 22.5628 17.7022 22.6857 17.634C22.8085 17.5658 22.9157 17.4724 23 17.36L28.55 11.81C29.0001 12.571 29.1854 13.4597 29.0768 14.3372C28.9682 15.2147 28.572 16.0315 27.95 16.66L25.12 19.49C24.9338 19.6773 24.8292 19.9308 24.8292 20.195C24.8292 20.4591 24.9338 20.7126 25.12 20.9C25.3074 21.0862 25.5608 21.1908 25.825 21.1908C26.0892 21.1908 26.3427 21.0862 26.53 20.9L29.36 18.07C30.3592 17.0669 30.9715 15.7428 31.0886 14.3319C31.2057 12.9209 30.8201 11.514 30 10.36V10.29Z" fill="#394762"/>
</g>
<defs>
<clipPath id="clip0">
<rect width="32" height="32" fill="white"/>
</clipPath>
</defs>
</svg>
